static/assets/img/icons/theme/cooking/bowl.svg

<svg height="24" viewBox="0 0 24 24" width="24" xmlns="http://www.w3.org/2000/svg"><g fill="none" fill-rule="evenodd"><path d="m0 0h24v24h-24z" opacity="0"/><g fill="#000"><path d="m8 17h8v2c0 .5522847-.4477153 1-1 1h-6c-.55228475 0-1-.4477153-1-1z" opacity=".3"/><path d="m2 7h20v1c0 5.5228475-4.4771525 10-10 10s-10-4.4771525-10-10zm15.580855 2.6060807c-.9098494 2.1229818-2.2474142 3.6091649-4.0280686 4.4994921-.4939785.2469893-.6942028.8476623-.4472136 1.3416408.2469893.4939785.8476623.6942028 1.3416408.4472136 2.2193456-1.1096728 3.8817808-2.956823 4.9719314-5.5005079.2175557-.50762978-.0175959-1.09550871-.5252257-1.31306433s-1.0955087.01759595-1.3130643.52522573z"/></g></g></svg>

<svg width="24px" height="24px" viewBox="0 0 24 24" version="1.1" xmlns="http://www.w3.org/2000/svg" xmlns:xlink="http://www.w3.org/1999/xlink">
    <title>Icon For Bowl</title>
    <g stroke="none" stroke-width="1" fill="none" fill-rule="evenodd">
        <rect opacity="0" x="0" y="0" width="24" height="24"></rect>
        <path d="M8,17 L16,17 L16,19 C16,19.5522847 15.5522847,20 15,20 L9,20 C8.44771525,20 8,19.5522847 8,19 L8,17 Z" fill="#000000" opacity="0.3"></path>
        <path d="M2,7 L22,7 L22,8 C22,13.5228475 17.5228475,18 12,18 C6.4771525,18 2,13.5228475 2,8 L2,7 Z M17.580855,9.6060807 C16.6710056,11.7290625 15.3334408,13.2152456 13.5527864,14.1055728 C13.0588079,14.3525621 12.8585836,14.9532351 13.1055728,15.4472136 C13.3525621,15.9411921 13.9532351,16.1414164 14.4472136,15.8944272 C16.6665592,14.7847544 18.3289944,12.9376042 19.419145,10.3939193 C19.6367007,9.88628952 19.4015491,9.29841059 18.8939193,9.08085497 C18.3862895,8.86329935 17.7984106,9.09845092 17.580855,9.6060807 Z" fill="#000000"></path>
    </g>
</svg>
